X:9
T:Unknown Mazurka
S:Philippe du Berger: Larry the Beer Drinker
M:3/4
L:1/8
K:Emin
B2 Bc de | B3 BcB | AA BA GF | G2 E2 E2 |
B2 Bc de | B3 BcB | AA BA GF  |1 E6 :|2 E3 eed |:
c3 Bcd | e3 edc | B3 ABc | B3 eed |
c3 Bcd | e3 edc | B3 AFG |1 F3 eed :|2 E6 |]
